src/public/images/menu.svg

<svg xmlns="http://www.w3.org/2000/svg" xmlns:xlink="http://www.w3.org/1999/xlink" width="512" height="512" fill="none" xmlns:v="https://vecta.io/nano"><g clip-path="url(#A)" fill="#48811a"><path d="M252.768 246.175a7.5 7.5 0 1 0 0-15 7.5 7.5 0 1 0 0 15zm0 114.496a7.5 7.5 0 1 0 0-15 7.5 7.5 0 1 0 0 15zm-28.646-114.496a7.5 7.5 0 1 0 0-15h-34.091a7.5 7.5 0 1 0 0 15h34.091zm96.077 0a7.5 7.5 0 1 0 0-15h-34.09a7.5 7.5 0 1 0 0 15h34.09zm-96.077 114.496a7.5 7.5 0 1 0 0-15h-34.091a7.5 7.5 0 1 0 0 15h34.091zm96.077 0a7.5 7.5 0 1 0 0-15h-34.09a7.5 7.5 0 1 0 0 15h34.09zM270.081 82.726a7 7 0 0 0-4.917 6.683v38.271a7 7 0 1 0 14 0v-15.816l13.118 18.996c1.94 2.803 5.341 4.031 8.458 3.057 3.165-.988 5.293-4.014 5.292-7.596l-.358-37.051c-.037-3.866-3.199-6.977-7.067-6.932-3.866.038-6.969 3.202-6.932 7.067l.156 16.164-13.907-20.138a7 7 0 0 0-7.843-2.705zm-77.103 5.907c-.713-3.499-3.701-6.083-7.266-6.284a7.88 7.88 0 0 0-7.925 5.428l-.073.239-4.782 16.775-4.969-16.843-.077-.245c-1.137-3.386-4.427-5.587-7.981-5.347-3.564.238-6.524 2.853-7.215 6.441l-6.739 37.339a7 7 0 0 0 5.646 8.132c3.8.688 7.445-1.84 8.132-5.645l2.141-11.86 3.631 12.307.078.247c1.079 3.212 4.072 5.363 7.456 5.363h.04c3.401-.017 6.393-2.202 7.443-5.437l.074-.242 3.502-12.285 2.29 11.98a7 7 0 0 0 8.189 5.562 7 7 0 0 0 5.561-8.189l-7.156-37.436zm47.278 7.879a7 7 0 1 0 0-14h-16.008a7 7 0 0 0-7 7v37.993a7 7 0 0 0 7 7h16.008a7 7 0 1 0 0-14h-9.008v-4.996h7.828a7 7 0 1 0 0-14h-7.828v-4.996h9.008v-.001zm90.494-14.175a7 7 0 0 0-7 7v26.384c0 6.588 3.111 11.917 9.246 15.836 3.235 2.067 6.877 3.117 10.827 3.123h.032c3.382 0 6.565-.739 9.46-2.197 7.144-3.598 11.078-9.56 11.078-16.789V89.337a7 7 0 1 0-14 0v26.356c0 .967 0 2.585-3.375 4.285-.937.472-1.971.701-3.163.701-1.272-.002-2.355-.303-3.322-.92-2.578-1.647-2.783-2.758-2.783-4.038V89.337a7 7 0 0 0-7-7h0z"/><use xlink:href="#B"/><use xlink:href="#C"/><path d="M344.071 273.248H166.16a7.5 7.5 0 1 0 0 15h177.911a7.5 7.5 0 1 0 0-15zm0 30.861H166.16a7.5 7.5 0 1 0 0 15h177.911a7.5 7.5 0 1 0 0-15zM158.66 392.127a7.5 7.5 0 0 0 7.5 7.5h177.911a7.5 7.5 0 1 0 0-15H166.16a7.5 7.5 0 0 0-7.5 7.5h0zm7.5 38.361h177.911a7.5 7.5 0 1 0 0-15H166.16a7.5 7.5 0 1 0 0 15h0zM431.623 0H237.076a7.5 7.5 0 1 0 0 15h194.546c5.234 0 9.493 4.258 9.493 9.493v463.014c0 5.234-4.258 9.493-9.493 9.493H80.378c-5.234 0-9.493-4.259-9.493-9.493V24.493c0-5.234 4.259-9.493 9.493-9.493h126.699a7.5 7.5 0 1 0 0-15H80.378C66.872 0 55.885 10.988 55.885 24.493v463.014c0 13.505 10.988 24.493 24.493 24.493h351.245c13.505 0 24.493-10.987 24.493-24.493V24.493C456.115 10.988 445.128 0 431.623 0h0zm-41.952 41.662H172.793l2.557-2.557a7.5 7.5 0 0 0-10.607-10.606l-76.706 76.706a7.5 7.5 0 0 0 0 10.606c1.464 1.465 3.384 2.197 5.303 2.197s3.839-.732 5.303-2.197l5.355-5.355v343.646c0 9.131 7.429 16.56 16.56 16.56h81.101a7.5 7.5 0 1 0 0-15H120.56c-.86 0-1.56-.7-1.56-1.56V95.456l38.794-38.794h231.877c.86 0 1.56.7 1.56 1.56v359.796l-37.644 37.644H231.661a7.5 7.5 0 1 0 0 15h107.034c-2.235 2.939-2.019 7.148.666 9.832 1.464 1.465 3.384 2.197 5.303 2.197s3.839-.732 5.303-2.197l76.706-76.706a7.5 7.5 0 0 0-10.606-10.606l-9.836 9.836V58.222c0-9.131-7.429-16.56-16.56-16.56h0z"/></g><defs><clipPath id="A"><path fill="#fff" d="M0 0h512v512H0z"/></clipPath><path id="B" d="M158.66 167.369a7.5 7.5 0 0 0 7.5 7.5h177.911a7.5 7.5 0 1 0 0-15H166.16a7.5 7.5 0 0 0-7.5 7.5h0z"/><path id="C" d="M344.071 190.73H166.16a7.5 7.5 0 1 0 0 15h177.911a7.5 7.5 0 1 0 0-15z"/></defs></svg>

<svg width="512" height="512" viewBox="0 0 512 512" fill="none" xmlns="http://www.w3.org/2000/svg">
<g clip-path="url(#clip0)">
<path d="M252.768 246.175C256.91 246.175 260.268 242.817 260.268 238.675C260.268 234.533 256.91 231.175 252.768 231.175C248.626 231.175 245.268 234.533 245.268 238.675C245.268 242.817 248.626 246.175 252.768 246.175Z" fill="#48811A"/>
<path d="M252.768 360.671C256.91 360.671 260.268 357.313 260.268 353.171C260.268 349.029 256.91 345.671 252.768 345.671C248.626 345.671 245.268 349.029 245.268 353.171C245.268 357.313 248.626 360.671 252.768 360.671Z" fill="#48811A"/>
<path d="M224.122 246.175C228.264 246.175 231.622 242.817 231.622 238.675C231.622 234.533 228.264 231.175 224.122 231.175H190.031C185.889 231.175 182.531 234.533 182.531 238.675C182.531 242.817 185.889 246.175 190.031 246.175H224.122Z" fill="#48811A"/>
<path d="M320.199 246.175C324.341 246.175 327.699 242.817 327.699 238.675C327.699 234.533 324.341 231.175 320.199 231.175H286.109C281.967 231.175 278.609 234.533 278.609 238.675C278.609 242.817 281.967 246.175 286.109 246.175H320.199Z" fill="#48811A"/>
<path d="M224.122 360.671C228.264 360.671 231.622 357.313 231.622 353.171C231.622 349.029 228.264 345.671 224.122 345.671H190.031C185.889 345.671 182.531 349.029 182.531 353.171C182.531 357.313 185.889 360.671 190.031 360.671H224.122Z" fill="#48811A"/>
<path d="M320.199 360.671C324.341 360.671 327.699 357.313 327.699 353.171C327.699 349.029 324.341 345.671 320.199 345.671H286.109C281.967 345.671 278.609 349.029 278.609 353.171C278.609 357.313 281.967 360.671 286.109 360.671H320.199Z" fill="#48811A"/>
<path d="M270.081 82.726C267.157 83.638 265.164 86.345 265.164 89.409V127.68C265.164 131.546 268.298 134.68 272.164 134.68C276.03 134.68 279.164 131.546 279.164 127.68V111.864L292.282 130.86C294.222 133.663 297.623 134.891 300.74 133.917C303.905 132.929 306.033 129.903 306.032 126.321L305.674 89.27C305.637 85.404 302.475 82.293 298.607 82.338C294.741 82.376 291.638 85.54 291.675 89.405L291.831 105.569L277.924 85.431C276.184 82.91 273.006 81.814 270.081 82.726Z" fill="#48811A"/>
<path d="M192.978 88.633C192.265 85.134 189.277 82.55 185.712 82.349C182.149 82.151 178.889 84.381 177.787 87.777C177.762 87.856 177.737 87.936 177.714 88.016L172.932 104.791L167.963 87.948C167.939 87.866 167.913 87.784 167.886 87.703C166.749 84.317 163.459 82.116 159.905 82.356C156.341 82.594 153.381 85.209 152.69 88.797L145.951 126.136C145.265 129.941 147.792 133.581 151.597 134.268C155.397 134.956 159.042 132.428 159.729 128.623L161.87 116.763L165.501 129.07C165.525 129.153 165.551 129.235 165.579 129.317C166.658 132.529 169.651 134.68 173.035 134.68H173.075C176.476 134.663 179.468 132.478 180.518 129.243C180.544 129.163 180.568 129.082 180.592 129.001L184.094 116.716L186.384 128.696C187.11 132.494 190.777 134.984 194.573 134.258C198.37 133.532 200.86 129.866 200.134 126.069L192.978 88.633Z" fill="#48811A"/>
<path d="M240.256 96.512C244.122 96.512 247.256 93.378 247.256 89.512C247.256 85.646 244.122 82.512 240.256 82.512H224.248C220.382 82.512 217.248 85.646 217.248 89.512V127.505C217.248 131.371 220.382 134.505 224.248 134.505H240.256C244.122 134.505 247.256 131.371 247.256 127.505C247.256 123.639 244.122 120.505 240.256 120.505H231.248V115.509H239.076C242.942 115.509 246.076 112.375 246.076 108.509C246.076 104.643 242.942 101.509 239.076 101.509H231.248V96.513H240.256V96.512Z" fill="#48811A"/>
<path d="M330.75 82.337C326.884 82.337 323.75 85.471 323.75 89.337V115.721C323.75 122.309 326.861 127.638 332.996 131.557C336.231 133.624 339.873 134.674 343.823 134.68H343.855C347.237 134.68 350.42 133.941 353.315 132.483C360.459 128.885 364.393 122.923 364.393 115.694V89.337C364.393 85.471 361.259 82.337 357.393 82.337C353.527 82.337 350.393 85.471 350.393 89.337V115.693C350.393 116.66 350.393 118.278 347.018 119.978C346.081 120.45 345.047 120.679 343.855 120.679C343.851 120.679 343.847 120.679 343.842 120.679C342.583 120.677 341.5 120.376 340.533 119.759C337.955 118.112 337.75 117.001 337.75 115.721V89.337C337.75 85.471 334.616 82.337 330.75 82.337V82.337Z" fill="#48811A"/>
<path d="M158.66 167.369C158.66 171.511 162.018 174.869 166.16 174.869H344.071C348.213 174.869 351.571 171.511 351.571 167.369C351.571 163.227 348.213 159.869 344.071 159.869H166.16C162.018 159.869 158.66 163.227 158.66 167.369V167.369Z" fill="#48811A"/>
<path d="M344.071 190.73H166.16C162.018 190.73 158.66 194.088 158.66 198.23C158.66 202.372 162.018 205.73 166.16 205.73H344.071C348.213 205.73 351.571 202.372 351.571 198.23C351.571 194.088 348.213 190.73 344.071 190.73Z" fill="#48811A"/>
<path d="M344.071 273.248H166.16C162.018 273.248 158.66 276.606 158.66 280.748C158.66 284.89 162.018 288.248 166.16 288.248H344.071C348.213 288.248 351.571 284.89 351.571 280.748C351.571 276.606 348.213 273.248 344.071 273.248Z" fill="#48811A"/>
<path d="M344.071 304.109H166.16C162.018 304.109 158.66 307.467 158.66 311.609C158.66 315.751 162.018 319.109 166.16 319.109H344.071C348.213 319.109 351.571 315.751 351.571 311.609C351.571 307.467 348.213 304.109 344.071 304.109Z" fill="#48811A"/>
<path d="M158.66 392.127C158.66 396.269 162.018 399.627 166.16 399.627H344.071C348.213 399.627 351.571 396.269 351.571 392.127C351.571 387.985 348.213 384.627 344.071 384.627H166.16C162.018 384.627 158.66 387.985 158.66 392.127V392.127Z" fill="#48811A"/>
<path d="M166.16 430.488H344.071C348.213 430.488 351.571 427.13 351.571 422.988C351.571 418.846 348.213 415.488 344.071 415.488H166.16C162.018 415.488 158.66 418.846 158.66 422.988C158.66 427.13 162.018 430.488 166.16 430.488V430.488Z" fill="#48811A"/>
<path d="M431.623 0H237.076C232.934 0 229.576 3.358 229.576 7.5C229.576 11.642 232.934 15 237.076 15H431.622C436.856 15 441.115 19.258 441.115 24.493V487.507C441.115 492.741 436.857 497 431.622 497H80.378C75.144 497 70.885 492.741 70.885 487.507V24.493C70.885 19.259 75.144 15 80.378 15H207.077C211.219 15 214.577 11.642 214.577 7.5C214.577 3.358 211.219 0 207.077 0H80.378C66.872 0 55.885 10.988 55.885 24.493V487.507C55.885 501.012 66.873 512 80.378 512H431.623C445.128 512 456.116 501.013 456.116 487.507V24.493C456.115 10.988 445.128 0 431.623 0V0Z" fill="#48811A"/>
<path d="M389.671 41.662H172.793L175.35 39.105C178.279 36.176 178.279 31.428 175.35 28.499C172.421 25.57 167.672 25.57 164.743 28.499L88.037 105.205C85.108 108.134 85.108 112.883 88.037 115.811C89.501 117.276 91.421 118.008 93.34 118.008C95.259 118.008 97.179 117.276 98.643 115.811L103.998 110.456V454.102C103.998 463.233 111.427 470.662 120.558 470.662H201.659C205.801 470.662 209.159 467.304 209.159 463.162C209.159 459.02 205.801 455.662 201.659 455.662H120.56C119.7 455.662 119 454.962 119 454.102V95.456L157.794 56.662H389.671C390.531 56.662 391.231 57.362 391.231 58.222V418.018L353.587 455.662H231.661C227.519 455.662 224.161 459.02 224.161 463.162C224.161 467.304 227.519 470.662 231.661 470.662H338.695C336.46 473.601 336.676 477.81 339.361 480.494C340.825 481.959 342.745 482.691 344.664 482.691C346.583 482.691 348.503 481.959 349.967 480.494L426.673 403.788C429.602 400.859 429.602 396.111 426.673 393.182C423.744 390.253 418.995 390.253 416.067 393.182L406.231 403.018V58.222C406.231 49.091 398.802 41.662 389.671 41.662V41.662Z" fill="#48811A"/>
</g>
<defs>
<clipPath id="clip0">
<rect width="512" height="512" fill="white"/>
</clipPath>
</defs>
</svg>
